svgs/thin/puzzle-piece.svg

<svg xmlns="http://www.w3.org/2000/svg" viewBox="0 0 512 512"><!-- Font Awesome Pro 6.0.0-alpha2 by @fontawesome - https://fontawesome.com License - https://fontawesome.com/license (Commercial License) --><path d="M456 216C440.125 216 424.969 224.734 414.422 239.984C410.891 245.078 405.766 248 400.359 248C391.344 248 384 240.656 384 231.641V168C384 145.938 366.062 128 344 128H280.359C271.344 128 264 120.656 264 111.641C264 106.234 266.922 101.109 272 97.578C287.25 87.031 296 71.875 296 56C296 25.125 263.703 0 224 0S152 25.125 152 56C152 71.875 160.75 87.031 175.984 97.578C181.078 101.109 184 106.234 184 111.641C184 120.656 176.656 128 167.641 128H40C17.938 128 0 145.938 0 168V231.641C0 249.484 14.516 264 32.359 264C42.938 264 53.109 258.422 59.578 249.078C67.203 238.062 77.297 232 88 232C110.062 232 128 257.125 128 288S110.062 344 88 344C77.297 344 67.203 337.922 59.578 326.891C53.109 317.562 42.922 312 32.359 312C14.516 312 0 326.516 0 344.359V472C0 494.062 17.938 512 40 512H167.641C185.484 512 200 497.484 200 479.641C200 469.078 194.438 458.891 185.094 452.422C174.078 444.797 168 434.703 168 424C168 401.938 193.125 384 224 384S280 401.938 280 424C280 434.703 273.922 444.797 262.891 452.422C253.562 458.891 248 469.078 248 479.641C248 497.484 262.516 512 280.359 512H344C366.062 512 384 494.062 384 472V344.359C384 335.344 391.344 328 400.359 328C405.766 328 410.891 330.922 414.422 336C424.969 351.25 440.125 360 456 360C486.875 360 512 327.703 512 288S486.875 216 456 216ZM456 344C445.297 344 435.203 337.922 427.578 326.891C421.109 317.562 410.922 312 400.359 312C382.516 312 368 326.516 368 344.359V472C368 485.234 357.234 496 344 496H280.359C271.344 496 264 488.656 264 479.641C264 474.234 266.922 469.109 272 465.578C287.25 455.031 296 439.875 296 424C296 393.125 263.703 368 224 368S152 393.125 152 424C152 439.875 160.75 455.031 175.984 465.578C181.078 469.109 184 474.234 184 479.641C184 488.656 176.656 496 167.641 496H40C26.766 496 16 485.234 16 472V344.359C16 335.344 23.344 328 32.359 328C37.766 328 42.891 330.922 46.422 336C56.969 351.25 72.125 360 88 360C118.875 360 144 327.703 144 288S118.875 216 88 216C72.125 216 56.969 224.734 46.422 239.984C42.891 245.078 37.766 248 32.359 248C23.344 248 16 240.656 16 231.641V168C16 154.766 26.766 144 40 144H167.641C185.484 144 200 129.484 200 111.641C200 101.078 194.438 90.891 185.094 84.422C174.078 76.797 168 66.703 168 56C168 33.938 193.125 16 224 16S280 33.938 280 56C280 66.703 273.922 76.797 262.891 84.422C253.562 90.891 248 101.078 248 111.641C248 129.484 262.516 144 280.359 144H344C357.234 144 368 154.766 368 168V231.641C368 249.484 382.516 264 400.359 264C410.938 264 421.109 258.422 427.578 249.078C435.203 238.062 445.297 232 456 232C478.062 232 496 257.125 496 288S478.062 344 456 344Z"/></svg>

<svg xmlns="http://www.w3.org/2000/svg" viewBox="0 0 512 512"><!--! Font Awesome Pro 6.3.0 by @fontawesome - https://fontawesome.com License - https://fontawesome.com/license (Commercial License) Copyright 2023 Fonticons, Inc. --><path d="M456 216c-35.57 0-37.84 32-55.64 32C391.3 248 384 240.7 384 231.6V168C384 145.9 366.1 128 344 128l-63.64 0c-9.016 0-16.36-7.344-16.36-16.36c0-17.78 32-20.12 32-55.64c0-30.88-32.3-56-72-56S152 25.12 152 56c0 35.56 32 37.83 32 55.64c0 9.016-7.344 16.36-16.36 16.36L40 128C17.94 128 0 145.9 0 168v63.64C0 249.5 14.52 264 32.36 264c28.97 0 27.5-32 55.64-32C110.1 232 128 257.1 128 288s-17.94 56-40 56c-28.06 0-26.67-32-55.64-32C14.52 312 0 326.5 0 344.4V472C0 494.1 17.94 512 40 512h127.6C185.5 512 200 497.5 200 479.6c0-28.7-32-27.84-32-55.64C168 401.9 193.1 384 224 384s56 17.94 56 40c0 28.06-32 26.67-32 55.64C248 497.5 262.5 512 280.4 512H344c22.06 0 40-17.94 40-40v-127.6c0-9.016 7.344-16.36 16.36-16.36c17.78 0 20.12 32 55.64 32C486.9 360 512 327.7 512 288S486.9 216 456 216zM456 344c-28.06 0-26.67-32-55.64-32C382.5 312 368 326.5 368 344.4V472c0 13.23-10.77 24-24 24h-63.64C271.3 496 264 488.7 264 479.6c0-17.78 32-20.12 32-55.64c0-30.88-32.3-56-72-56s-72 25.12-72 56c0 35.56 32 37.83 32 55.64C184 488.7 176.7 496 167.6 496H40c-13.23 0-24-10.77-24-24v-127.6C16 335.3 23.34 328 32.36 328c17.78 0 20.12 32 55.64 32c30.88 0 56-32.3 56-72S118.9 216 88 216c-35.57 0-37.84 32-55.64 32C23.34 248 16 240.7 16 231.6V168c0-13.23 10.77-24 24-24h127.6C185.5 144 200 129.5 200 111.6c0-28.7-32-27.84-32-55.64C168 33.94 193.1 16 224 16s56 17.94 56 40c0 28.06-32 26.67-32 55.64C248 129.5 262.5 144 280.4 144H344c13.23 0 24 10.77 24 24v63.64C368 249.5 382.5 264 400.4 264c28.97 0 27.5-32 55.64-32c22.06 0 40 25.12 40 56S478.1 344 456 344z"/></svg>
